src/topics/icons/duckduckgo.svg

<svg height="255" preserveAspectRatio="xMidYMid" viewBox="0 0 256 255" width="256" xmlns="http://www.w3.org/2000/svg" xmlns:xlink="http://www.w3.org/1999/xlink"><linearGradient id="a" x1="71.004629%" x2="0%" y1="100%" y2="100%"><stop offset="0" stop-color="#394a9f"/><stop offset="1" stop-color="#6176b9"/></linearGradient><path d="m128.145 18.841c60.002 0 108.643 48.641 108.643 108.643 0 60.001-48.641 108.642-108.643 108.642-60.001 0-108.642-48.641-108.642-108.642 0-60.002 48.641-108.643 108.642-108.643" fill="#de5833"/><path d="m128.143 254.922c70.383 0 127.44-57.057 127.44-127.44s-57.057-127.44-127.44-127.44-127.44 57.057-127.44 127.44 57.057 127.44 127.44 127.44zm0-10.62c-64.518 0-116.82-52.302-116.82-116.82s52.302-116.82 116.82-116.82 116.82 52.302 116.82 116.82-52.302 116.82-116.82 116.82z" fill="#de5833"/><g transform="translate(66 42)"><g fill="#d5d7d8"><path d="m9.219 12.13c-.021-1.827 1.306-2.85 3.069-3.567-.807.132-1.58.334-2.276.646-1.838.833-3.212 3.987-3.199 5.48 8.923-.902 22.118-.278 31.767 2.602.712-.1 1.424-.2 2.147-.283-9.624-4.273-21.066-5.923-31.508-4.878"/><path d="m11.048 1.15c.201-.036.405-.061.607-.095-1.925.239-2.94.927-4.385 1.164 1.569.139 7.514 2.914 11.25 4.44.524-.199.996-.42 1.381-.681-1.937-.286-6.75-4.636-8.853-4.828"/><path d="m20.326 22.756c-.535.206-1.043.421-1.483.652-14.545 7.663-20.97 25.562-17.141 47.01 3.495 19.518 17.82 86.205 24.379 117.571 1.915.673 3.853 1.298 5.815 1.865-5.841-28.24-21.784-102.24-25.504-123.023-3.771-21.143-.102-36.314 13.934-44.075"/></g><path d="m79.184 176.618c-.24.16-.526.31-.831.456-.226.876-.571 1.54-1.074 1.874-3.004 1.993-11.489 2.997-15.969 1.993-.771-.171-1.355-.454-1.811-.843-7.649 4.247-18.649 9.901-20.883 8.627-3.49-2.001-3.996-28.451-3.49-34.942.369-4.9 17.581 3.037 25.954 7.2 1.851-1.729 6.386-2.886 10.4-3.279-6.065-14.761-10.538-31.645-7.796-43.618-3.79-2.641-8.813-8.766-7.767-15.159.806-4.866 13.38-14.072 22.283-14.628 8.923-.563 11.704-.436 19.138-2.216.372-.089.781-.187 1.209-.29 4.576-16.087-6.399-44.074-18.641-56.321-3.991-3.991-10.127-6.503-17.041-7.829-2.659-3.649-6.948-7.138-13.02-10.369-11.275-5.986-25.209-8.423-38.19-6.219-.202.034-.406.059-.607.095 2.103.192 6.916 4.542 8.853 4.828-.385.261-.857.482-1.381.681-1.818.692-4.289 1.112-6.232 1.904-1.763.717-3.09 1.74-3.069 3.567 10.442-1.045 21.884.605 31.508 4.878-.723.083-1.435.183-2.147.283-6.825.96-13.098 2.728-17.63 5.119-.213.111-.415.231-.624.346-14.036 7.761-17.705 22.932-13.934 44.075 3.72 20.783 19.7669994 95.928995 25.6079994 124.168995 9.603 2.779 18.5819999 5 29.0799999 5 8.912 0 19.631002-1.975 27.920002-4-2.911-5.613-6.6560013-11.819995-8.9640013-16.270995-.308.367-.551.688-.852.889zm5.873-106.561c-3.804 0-6.907-3.094-6.907-6.92 0-3.808 3.103-6.903 6.907-6.903 3.825 0 6.916 3.095 6.916 6.903 0 3.826-3.091 6.92-6.916 6.92zm4.161-26.008s-4.357-2.489-7.738-2.447c-6.948.091-8.84 3.161-8.84 3.161s1.166-7.318 10.051-5.85c4.817.801 6.527 5.136 6.527 5.136zm-73.255 8.997s-3.129-6.973 5.21-10.39c8.348-3.418 12.413 1.945 12.413 1.945s-6.062-2.742-11.956.962c-5.884 3.7-5.667 7.483-5.667 7.483zm7.29 14.862c0-4.446 3.595-8.044 8.047-8.044 4.44 0 8.04 3.598 8.04 8.044 0 4.447-3.6 8.041-8.04 8.041-4.452.002-8.047-3.594-8.047-8.041z" fill="#fff"/><path d="m39.34 67.908c0-4.446-3.6-8.044-8.04-8.044-4.452 0-8.047 3.598-8.047 8.044 0 4.447 3.595 8.043 8.047 8.041 4.44 0 8.04-3.594 8.04-8.041zm-4.478-.591c-1.142.003-2.081-.936-2.081-2.09 0-1.157.936-2.088 2.081-2.088 1.154 0 2.09.931 2.09 2.088 0 1.154-.936 2.09-2.09 2.09z" fill="#2d4f8e"/><path d="m34.862 63.139c-1.145 0-2.081.931-2.081 2.088 0 1.154.939 2.093 2.081 2.09 1.154 0 2.09-.936 2.09-2.09 0-1.157-.936-2.088-2.09-2.088" fill="#fff"/><path d="m85.057 56.234c-3.804 0-6.907 3.095-6.907 6.903 0 3.826 3.103 6.92 6.907 6.92 3.825 0 6.916-3.094 6.916-6.92 0-3.808-3.091-6.903-6.916-6.903zm3.067 6.394c-.975 0-1.78-.793-1.78-1.789 0-.983.805-1.79 1.78-1.79 1.017 0 1.797.807 1.797 1.79 0 .996-.78 1.789-1.797 1.789z" fill="#2d4f8e"/><path d="m88.124 59.049c-.975 0-1.78.807-1.78 1.79 0 .996.805 1.789 1.78 1.789 1.017 0 1.797-.793 1.797-1.789 0-.983-.78-1.79-1.797-1.79" fill="#fff"/><path d="m33.586 44.601s-4.065-5.363-12.413-1.945c-8.339 3.417-5.21 10.39-5.21 10.39s-.217-3.783 5.667-7.483c5.894-3.704 11.956-.962 11.956-.962" fill="url(#a)"/><path d="m82.691 38.913c-8.885-1.468-10.051 5.85-10.051 5.85s1.892-3.07 8.84-3.161c3.381-.042 7.738 2.447 7.738 2.447s-1.71-4.335-6.527-5.136" fill="url(#a)"/><path d="m78.2 84.299c-8.903.556-21.477 9.762-22.283 14.628-1.046 6.393 3.977 12.518 7.767 15.159.01.007.021.016.031.023 3.789 2.636 29.018 11.147 41.535 10.911 12.531-.244 33.111-7.918 30.851-14.067-2.25-6.151-22.689 5.427-44.007 3.451-15.788-1.467-18.575-8.54-15.079-13.706 4.397-6.493 12.406 1.232 25.616-2.721 13.23-3.942 31.732-10.998 38.597-14.84 15.873-8.849-6.642-12.519-11.96-10.064-5.041 2.329-22.587 6.757-30.721 8.72-.428.103-.837.201-1.209.29-7.434 1.78-10.215 1.653-19.138 2.216" fill="#fdd209"/></g><g transform="translate(100 189)"><path d="m24.316 17.97c0-.921.741-1.736 1.917-2.431.033-.559.337-1.079.847-1.556-8.373-4.163-25.585-12.1-25.954-7.2-.506 6.491 0 32.941 3.49 34.942 2.234 1.274 13.234-4.38 20.883-8.627-2.207-1.881-1.183-6.447-1.183-15.128" fill="#65bc46"/><path d="m45.925 28.686c.036.014.075.029.111.043 6.854 2.645 20.498 7.624 23.461 6.537 3.995-1.527 2.995-33.453-1.489-34.47-3.592-.797-17.343 8.892-22.753 12.839.957 4.041 2.115 12.045.67 15.051" fill="#65bc46"/><path d="m29.214 31.611c-4.495-.996-2.993-5.493-2.993-15.971 0-.034.01-.067.012-.101-1.176.695-1.917 1.51-1.917 2.431 0 8.681-1.024 13.247 1.183 15.128.456.389 1.04.672 1.811.843 4.48 1.004 12.965 0 15.969-1.993.503-.334.848-.998 1.074-1.874-3.516 1.684-11.024 2.473-15.139 1.537" fill="#43a244"/><path d="m27.08 13.983c-.51.477-.814.997-.847 1.556-.002.034-.012.067-.012.101 0 10.478-1.502 14.975 2.993 15.971 4.115.936 11.623.147 15.139-1.537.305-.146.591-.296.831-.456.301-.201.544-.522.741-.932 1.445-3.006.287-11.01-.67-15.051-.211-.889-.411-1.589-.572-1.999-.413-1.022-3.594-1.285-7.203-.932-4.014.393-8.549 1.55-10.4 3.279" fill="#65bc46"/></g></svg>

<?xml version="1.0" encoding="UTF-8" standalone="no"?>
<svg width="256px" height="255px" viewBox="0 0 256 255" version="1.1" xmlns="http://www.w3.org/2000/svg" xmlns:xlink="http://www.w3.org/1999/xlink" preserveAspectRatio="xMidYMid">
    <defs>
        <linearGradient x1="71.0046292%" y1="100%" x2="0%" y2="100%" id="linearGradient-1">
            <stop stop-color="#394A9F" offset="0%"></stop>
            <stop stop-color="#6176B9" offset="100%"></stop>
        </linearGradient>
    </defs>
	<g>
		<path d="M128.145,18.841 C188.147,18.841 236.788,67.482 236.788,127.484 C236.788,187.485 188.147,236.126 128.145,236.126 C68.144,236.126 19.503,187.485 19.503,127.484 C19.503,67.482 68.144,18.841 128.145,18.841" fill="#DE5833"></path>
		<path d="M128.143,254.922 C198.526,254.922 255.583,197.865 255.583,127.482 C255.583,57.099 198.526,0.042 128.143,0.042 C57.76,0.042 0.703,57.099 0.703,127.482 C0.703,197.865 57.76,254.922 128.143,254.922 L128.143,254.922 Z M128.143,244.302 C63.625,244.302 11.323,192 11.323,127.482 C11.323,62.964 63.625,10.662 128.143,10.662 C192.661,10.662 244.963,62.964 244.963,127.482 C244.963,192 192.661,244.302 128.143,244.302 L128.143,244.302 Z" fill="#DE5833"></path>
		<g transform="translate(66.000000, 42.000000)">
			<path d="M9.219,12.13 C9.198,10.303 10.525,9.28 12.288,8.563 C11.481,8.695 10.708,8.897 10.012,9.209 C8.174,10.042 6.8,13.196 6.813,14.689 C15.736,13.787 28.931,14.411 38.58,17.291 C39.292,17.191 40.004,17.091 40.727,17.008 C31.103,12.735 19.661,11.085 9.219,12.13" fill="#D5D7D8"></path>
			<path d="M11.048,1.15 C11.249,1.114 11.453,1.089 11.655,1.055 C9.73,1.294 8.715,1.982 7.27,2.219 C8.839,2.358 14.784,5.133 18.52,6.659 C19.044,6.46 19.516,6.239 19.901,5.978 C17.964,5.692 13.151,1.342 11.048,1.15" fill="#D5D7D8"></path>
			<path d="M20.326,22.756 C19.791,22.962 19.283,23.177 18.843,23.408 C4.298,31.071 -2.127,48.97 1.702,70.418 C5.197,89.936 19.522,156.623 26.081,187.989 C27.996,188.662 29.934,189.287 31.896,189.854 C26.055,161.614 10.112,87.614 6.392,66.831 C2.621,45.688 6.29,30.517 20.326,22.756" fill="#D5D7D8"></path>
			<path d="M79.184,176.618 C78.944,176.778 78.658,176.928 78.353,177.074 C78.127,177.95 77.782,178.614 77.279,178.948 C74.275,180.941 65.79,181.945 61.31,180.941 C60.539,180.77 59.955,180.487 59.499,180.098 C51.85,184.345 40.85,189.999 38.616,188.725 C35.126,186.724 34.62,160.274 35.126,153.783 C35.495,148.883 52.707,156.82 61.08,160.983 C62.931,159.254 67.466,158.097 71.48,157.704 C65.415,142.943 60.942,126.059 63.684,114.086 C59.894,111.445 54.871,105.32 55.917,98.927 C56.723,94.061 69.297,84.855 78.2,84.299 C87.123,83.736 89.904,83.863 97.338,82.083 C97.71,81.994 98.119,81.896 98.547,81.793 C103.123,65.706 92.148,37.719 79.906,25.472 C75.915,21.481 69.779,18.969 62.865,17.643 C60.206,13.994 55.917,10.505 49.845,7.274 C38.57,1.288 24.636,-1.149 11.655,1.055 C11.453,1.089 11.249,1.114 11.048,1.15 C13.151,1.342 17.964,5.692 19.901,5.978 C19.516,6.239 19.044,6.46 18.52,6.659 C16.702,7.351 14.231,7.771 12.288,8.563 C10.525,9.28 9.198,10.303 9.219,12.13 C19.661,11.085 31.103,12.735 40.727,17.008 C40.004,17.091 39.292,17.191 38.58,17.291 C31.755,18.251 25.482,20.019 20.95,22.41 C20.737,22.521 20.535,22.641 20.326,22.756 C6.29,30.517 2.621,45.688 6.392,66.831 C10.112,87.614 26.1589994,162.759995 31.9999994,190.999995 C41.6029994,193.778995 50.5819993,195.999995 61.0799993,195.999995 C69.9919993,195.999995 80.7110013,194.024995 89.0000013,191.999995 C86.0890013,186.386995 82.344,180.18 80.036,175.729 C79.728,176.096 79.485,176.417 79.184,176.618 Z M85.057,70.057 C81.253,70.057 78.15,66.963 78.15,63.137 C78.15,59.329 81.253,56.234 85.057,56.234 C88.882,56.234 91.973,59.329 91.973,63.137 C91.973,66.963 88.882,70.057 85.057,70.057 L85.057,70.057 Z M89.218,44.049 C89.218,44.049 84.861,41.56 81.48,41.602 C74.532,41.693 72.64,44.763 72.64,44.763 C72.64,44.763 73.806,37.445 82.691,38.913 C87.508,39.714 89.218,44.049 89.218,44.049 L89.218,44.049 Z M15.963,53.046 C15.963,53.046 12.834,46.073 21.173,42.656 C29.521,39.238 33.586,44.601 33.586,44.601 C33.586,44.601 27.524,41.859 21.63,45.563 C15.746,49.263 15.963,53.046 15.963,53.046 L15.963,53.046 Z M23.253,67.908 C23.253,63.462 26.848,59.864 31.3,59.864 C35.74,59.864 39.34,63.462 39.34,67.908 C39.34,72.355 35.74,75.949 31.3,75.949 C26.848,75.951 23.253,72.355 23.253,67.908 L23.253,67.908 Z" fill="#FFFFFF"></path>
			<path d="M39.34,67.908 C39.34,63.462 35.74,59.864 31.3,59.864 C26.848,59.864 23.253,63.462 23.253,67.908 C23.253,72.355 26.848,75.951 31.3,75.949 C35.74,75.949 39.34,72.355 39.34,67.908 L39.34,67.908 Z M34.862,67.317 C33.72,67.32 32.781,66.381 32.781,65.227 C32.781,64.07 33.717,63.139 34.862,63.139 C36.016,63.139 36.952,64.07 36.952,65.227 C36.952,66.381 36.016,67.317 34.862,67.317 L34.862,67.317 Z" fill="#2D4F8E"></path>
			<path d="M34.862,63.139 C33.717,63.139 32.781,64.07 32.781,65.227 C32.781,66.381 33.72,67.32 34.862,67.317 C36.016,67.317 36.952,66.381 36.952,65.227 C36.952,64.07 36.016,63.139 34.862,63.139" fill="#FFFFFF"></path>
			<path d="M85.057,56.234 C81.253,56.234 78.15,59.329 78.15,63.137 C78.15,66.963 81.253,70.057 85.057,70.057 C88.882,70.057 91.973,66.963 91.973,63.137 C91.973,59.329 88.882,56.234 85.057,56.234 L85.057,56.234 Z M88.124,62.628 C87.149,62.628 86.344,61.835 86.344,60.839 C86.344,59.856 87.149,59.049 88.124,59.049 C89.141,59.049 89.921,59.856 89.921,60.839 C89.921,61.835 89.141,62.628 88.124,62.628 L88.124,62.628 Z" fill="#2D4F8E"></path>
			<path d="M88.124,59.049 C87.149,59.049 86.344,59.856 86.344,60.839 C86.344,61.835 87.149,62.628 88.124,62.628 C89.141,62.628 89.921,61.835 89.921,60.839 C89.921,59.856 89.141,59.049 88.124,59.049" fill="#FFFFFF"></path>
			<path d="M33.586,44.601 C33.586,44.601 29.521,39.238 21.173,42.656 C12.834,46.073 15.963,53.046 15.963,53.046 C15.963,53.046 15.746,49.263 21.63,45.563 C27.524,41.859 33.586,44.601 33.586,44.601" fill="url(#linearGradient-1)"></path>
			<path d="M82.691,38.913 C73.806,37.445 72.64,44.763 72.64,44.763 C72.64,44.763 74.532,41.693 81.48,41.602 C84.861,41.56 89.218,44.049 89.218,44.049 C89.218,44.049 87.508,39.714 82.691,38.913" fill="url(#linearGradient-1)"></path>
			<path d="M78.2,84.299 C69.297,84.855 56.723,94.061 55.917,98.927 C54.871,105.32 59.894,111.445 63.684,114.086 C63.694,114.093 63.705,114.102 63.715,114.109 C67.504,116.745 92.733,125.256 105.25,125.02 C117.781,124.776 138.361,117.102 136.101,110.953 C133.851,104.802 113.412,116.38 92.094,114.404 C76.306,112.937 73.519,105.864 77.015,100.698 C81.412,94.205 89.421,101.93 102.631,97.977 C115.861,94.035 134.363,86.979 141.228,83.137 C157.101,74.288 134.586,70.618 129.268,73.073 C124.227,75.402 106.681,79.83 98.547,81.793 C98.119,81.896 97.71,81.994 97.338,82.083 C89.904,83.863 87.123,83.736 78.2,84.299" fill="#FDD209"></path>
		</g>
		<g transform="translate(100.000000, 189.000000)">
			<path d="M24.316,17.97 C24.316,17.049 25.057,16.234 26.233,15.539 C26.266,14.98 26.57,14.46 27.08,13.983 C18.707,9.82 1.495,1.883 1.126,6.783 C0.62,13.274 1.126,39.724 4.616,41.725 C6.85,42.999 17.85,37.345 25.499,33.098 C23.292,31.217 24.316,26.651 24.316,17.97" fill="#65BC46"></path>
			<path d="M45.925,28.686 C45.961,28.7 46,28.715 46.036,28.729 C52.89,31.374 66.534,36.353 69.497,35.266 C73.492,33.739 72.492,1.813 68.008,0.796 C64.416,-0.001 50.665,9.688 45.255,13.635 C46.212,17.676 47.37,25.68 45.925,28.686" fill="#65BC46"></path>
			<path d="M29.214,31.611 C24.719,30.615 26.221,26.118 26.221,15.64 C26.221,15.606 26.231,15.573 26.233,15.539 C25.057,16.234 24.316,17.049 24.316,17.97 C24.316,26.651 23.292,31.217 25.499,33.098 C25.955,33.487 26.539,33.77 27.31,33.941 C31.79,34.945 40.275,33.941 43.279,31.948 C43.782,31.614 44.127,30.95 44.353,30.074 C40.837,31.758 33.329,32.547 29.214,31.611" fill="#43A244"></path>
			<path d="M27.08,13.983 C26.57,14.46 26.266,14.98 26.233,15.539 C26.231,15.573 26.221,15.606 26.221,15.64 C26.221,26.118 24.719,30.615 29.214,31.611 C33.329,32.547 40.837,31.758 44.353,30.074 C44.658,29.928 44.944,29.778 45.184,29.618 C45.485,29.417 45.728,29.096 45.925,28.686 C47.37,25.68 46.212,17.676 45.255,13.635 C45.044,12.746 44.844,12.046 44.683,11.636 C44.27,10.614 41.089,10.351 37.48,10.704 C33.466,11.097 28.931,12.254 27.08,13.983" fill="#65BC46"></path>
		</g>
	</g>
</svg>
